public/patterns/circles-and-squares.svg

<?xml version="1.0" encoding="UTF-8" standalone="no"?>
<svg width="40px" height="40px" viewBox="0 0 40 40" version="1.1" xmlns="http://www.w3.org/2000/svg" xmlns:xlink="http://www.w3.org/1999/xlink">
    <!-- Generator: Sketch 40 (33762) - http://www.bohemiancoding.com/sketch -->
    <title>circle-squares</title>
    <desc>Created with Sketch.</desc>
    <defs></defs>
    <g id="Page-1" stroke="none" stroke-width="1" fill="none" fill-rule="evenodd">
        <g id="circle-squares" fill="#000000">
            <path d="M0,0 L20,0 L20,20 L0,20 L0,0 L0,0 Z M10,17 C13.8659932,17 17,13.8659932 17,10 C17,6.13400675 13.8659932,3 10,3 C6.13400675,3 3,6.13400675 3,10 C3,13.8659932 6.13400675,17 10,17 L10,17 Z M30,17 C33.8659932,17 37,13.8659932 37,10 C37,6.13400675 33.8659932,3 30,3 C26.1340068,3 23,6.13400675 23,10 C23,13.8659932 26.1340068,17 30,17 L30,17 Z M10,37 C13.8659932,37 17,33.8659932 17,30 C17,26.1340068 13.8659932,23 10,23 C6.13400675,23 3,26.1340068 3,30 C3,33.8659932 6.13400675,37 10,37 L10,37 Z M20,20 L40,20 L40,40 L20,40 L20,20 L20,20 Z M30,37 C33.8659932,37 37,33.8659932 37,30 C37,26.1340068 33.8659932,23 30,23 C26.1340068,23 23,26.1340068 23,30 C23,33.8659932 26.1340068,37 30,37 L30,37 Z" id="Combined-Shape"></path>
        </g>
    </g>
</svg>

<svg width="40" height="40" viewBox="0 0 40 40" xmlns="http://www.w3.org/2000/svg"><path d="M0 0h20v20H0V0Zm10 17a7 7 0 1 0 0-14 7 7 0 0 0 0 14Zm20 0a7 7 0 1 0 0-14 7 7 0 0 0 0 14ZM10 37a7 7 0 1 0 0-14 7 7 0 0 0 0 14Zm10-17h20v20H20V20Zm10 17a7 7 0 1 0 0-14 7 7 0 0 0 0 14Z" fill-rule="evenodd"/></svg>
